src/epub/images/titlepage.svg

<?xml version="1.0" encoding="utf-8"?>
<svg xmlns="http://www.w3.org/2000/svg" xmlns:svg="http://www.w3.org/2000/svg" version="1.1" viewBox="0 0 1400 440">
	<title>The titlepage for the Standard Ebooks edition of The Great Impersonation, by E. Phillips Oppenheim</title>
	<g>
		<path d="m 415.39766,68.245613 18.33918,0 0,61.754387 17.59064,0 0,-61.754387 18.33918,0 0,-15.438597 -54.269,0 0,15.438597 z"/>
		<path d="m 498.5921,99.029239 24.88889,0 0,30.970761 17.59064,0 0,-77.192984 -17.59064,0 0,30.783626 -24.88889,0 0,-30.783626 -17.59064,0 0,77.192984 17.59064,0 0,-30.970761 z"/>
		<path d="m 601.43714,52.807016 -44.16375,0 0,77.192984 44.16375,0 0,-15.4386 -26.5731,0 0,-15.532161 25.45029,0 0,-15.438597 -25.45029,0 0,-15.345029 26.5731,0 0,-15.438597 z"/>
		<path d="m 716.93568,86.771929 -35.64913,0 0,13.567251 17.77778,0 c 0,9.45029 -8.32748,14.87719 -16.74854,14.87719 -10.8538,0 -19.64912,-10.66666 -19.64912,-23.766078 0,-13.380117 8.79532,-24.140352 19.64912,-24.140352 6.83041,0 12.72515,2.713451 17.21638,9.918129 L 711.04094,64.59649 c -6.73684,-8.140351 -16.18713,-13.192983 -29.75439,-13.192983 -21.7076,0 -37.61403,17.871346 -37.61403,40.046785 0,22.081868 16.8421,39.953218 37.61403,39.953218 15.1579,0 31.4386,-8.32749 35.64913,-27.88304 l 0,-16.748541 z"/>
		<path d="m 729.61987,52.807016 0,77.192984 17.59065,0 0,-30.502925 L 770.78946,130 l 22.36258,0 -26.5731,-31.906433 c 9.45029,-2.994152 15.81286,-10.760234 15.81286,-22.362574 0,-15.157895 -10.8538,-22.923977 -25.16959,-22.923977 l -27.60234,0 z m 17.59065,34.245615 0,-20.210527 2.05848,0 c 6.64327,0 14.59649,0.467836 14.59649,10.105263 0,9.637428 -7.95322,10.105264 -14.59649,10.105264 l -2.05848,0 z"/>
		<path d="m 845.85234,52.807016 -44.16374,0 0,77.192984 44.16374,0 0,-15.4386 -26.5731,0 0,-15.532161 25.4503,0 0,-15.438597 -25.4503,0 0,-15.345029 26.5731,0 0,-15.438597 z"/>
		<path d="m 900.71783,52.807016 -16.2807,0 L 853.27924,130 l 18.90058,0 5.7076,-15.4386 29.38012,0 5.7076,15.4386 18.90059,0 -31.1579,-77.192984 z m 0.56141,46.31579 -17.40351,0 8.60818,-22.45614 0.18714,0 8.60819,22.45614 z"/>
		<path d="m 930.3611,68.245613 18.33918,0 0,61.754387 17.59064,0 0,-61.754387 18.33918,0 0,-15.438597 -54.269,0 0,15.438597 z"/>
	</g>
	<g>
		<path d="m 275.25876,152.80702 -17.59064,0 0,77.19298 17.59064,0 0,-77.19298 z"/>
		<path d="m 355.35526,230 17.59064,0 -6.92398,-77.19298 -18.71345,0 -17.12281,44.53801 -17.1228,-44.53801 -18.71345,0 -6.92398,77.19298 17.59064,0 3.64913,-45.75439 0.46783,0 15.81287,45.28655 10.47953,0 15.81287,-45.28655 0.46783,0 L 355.35526,230 Z"/>
		<path d="m 384.99268,152.80702 0,77.19298 17.59065,0 0,-28.63158 10.5731,0 c 15.06432,0 26.38596,-8.88889 26.38596,-24.79532 0,-16 -11.32164,-23.76608 -26.38596,-23.76608 l -28.16375,0 z m 17.59065,34.52631 0,-20.49123 4.95906,0 c 6.92398,0 13.47369,2.33919 13.47369,10.2924 0,7.85965 -6.54971,10.19883 -13.47369,10.19883 l -4.95906,0 z"/>
		<path d="m 496.47368,152.80702 -44.16374,0 0,77.19298 44.16374,0 0,-15.4386 -26.5731,0 0,-15.53216 25.45029,0 0,-15.4386 -25.45029,0 0,-15.34503 26.5731,0 0,-15.43859 z"/>
		<path d="m 511.58626,152.80702 0,77.19298 17.59064,0 0,-30.50292 23.57895,30.50292 22.36257,0 -26.5731,-31.90643 c 9.4503,-2.99416 15.81287,-10.76024 15.81287,-22.36258 0,-15.15789 -10.8538,-22.92397 -25.16959,-22.92397 l -27.60234,0 z m 17.59064,34.24561 0,-20.21053 2.05848,0 c 6.64328,0 14.59649,0.46784 14.59649,10.10527 0,9.63742 -7.95321,10.10526 -14.59649,10.10526 l -2.05848,0 z"/>
		<path d="m 612.09941,151.40351 c -12.44444,0 -25.16959,9.16959 -25.16959,23.57895 0,8.04678 5.4269,15.25146 14.69006,19.83625 9.16959,4.5848 17.40351,7.11111 17.40351,12.72515 0,7.20468 -7.29825,7.57895 -11.1345,7.57895 -8.60819,0 -18.90059,-8.70176 -18.90059,-8.70176 l -8.79532,14.78363 c 0,0 10.94737,10.19883 29.00585,10.19883 15.06433,0 29.09941,-6.45614 29.09941,-24.88889 0,-10.10526 -9.45029,-17.40351 -18.05848,-21.05263 -8.79532,-3.74269 -16.09356,-6.83041 -16.09356,-11.13451 0,-4.21052 3.18128,-6.92397 9.16959,-6.92397 7.95321,0 15.62573,5.33333 15.62573,5.33333 l 7.11111,-14.03509 c 0,0 -9.91813,-7.29824 -23.95322,-7.29824 z"/>
		<path d="m 648.05849,191.35672 c 0,22.54971 16.09357,40.04679 38.92398,40.04679 22.17544,0 38.83041,-17.49708 38.83041,-40.04679 0,-22.5497 -17.40351,-39.95321 -38.83041,-39.95321 -21.23977,0 -38.92398,17.40351 -38.92398,39.95321 z m 18.99415,0 c 0,-11.50877 6.36257,-23.01754 19.92983,-23.01754 13.66082,0 19.83625,11.50877 19.83625,23.01754 0,11.50878 -5.80117,23.01755 -19.83625,23.01755 -14.40936,0 -19.92983,-11.50877 -19.92983,-23.01755 z"/>
		<path d="m 756.1652,182.09357 0.18713,0 30.69006,47.90643 17.59065,0 0,-77.19298 -17.59065,0 0,47.90643 -0.18713,0 -30.69006,-47.90643 -17.59065,0 0,77.19298 17.59065,0 0,-47.90643 z"/>
		<path d="m 860.08191,152.80702 -16.28071,0 L 812.64331,230 l 18.90058,0 5.70761,-15.4386 29.38011,0 5.70761,15.4386 18.90058,0 -31.15789,-77.19298 z m 0.5614,46.31579 -17.40351,0 8.60819,-22.45614 0.18713,0 8.60819,22.45614 z"/>
		<path d="m 889.72517,168.24561 18.33918,0 0,61.75439 17.59065,0 0,-61.75439 18.33918,0 0,-15.43859 -54.26901,0 0,15.43859 z"/>
		<path d="m 972.91959,152.80702 -17.59064,0 0,77.19298 17.59064,0 0,-77.19298 z"/>
		<path d="m 985.74123,191.35672 c 0,22.54971 16.09357,40.04679 38.92397,40.04679 22.1754,0 38.8304,-17.49708 38.8304,-40.04679 0,-22.5497 -17.4035,-39.95321 -38.8304,-39.95321 -21.2398,0 -38.92397,17.40351 -38.92397,39.95321 z m 18.99417,0 c 0,-11.50877 6.3626,-23.01754 19.9298,-23.01754 13.6608,0 19.8363,11.50877 19.8363,23.01754 0,11.50878 -5.8012,23.01755 -19.8363,23.01755 -14.4094,0 -19.9298,-11.50877 -19.9298,-23.01755 z"/>
		<path d="m 1093.8479,182.09357 0.1872,0 30.69,47.90643 17.5907,0 0,-77.19298 -17.5907,0 0,47.90643 -0.1871,0 -30.6901,-47.90643 -17.5906,0 0,77.19298 17.5906,0 0,-47.90643 z"/>
	</g>
	<g>
		<path d="m 259.97588,332.10526 -33.12281,0 0,57.89474 33.12281,0 0,-11.57895 -19.92982,0 0,-11.64912 19.08772,0 0,-11.57895 -19.08772,0 0,-11.50877 19.92982,0 0,-11.57895 z"/>
		<path d="m 280.56031,374.98246 c -4.42105,0 -8,3.57894 -8,8.07017 0,4.42105 3.57895,8 8,8 4.49123,0 8.07018,-3.57895 8.07018,-8 0,-4.49123 -3.57895,-8.07017 -8.07018,-8.07017 z"/>
		<path d="m 326.2829,332.10526 0,57.89474 13.19298,0 0,-21.47368 7.92983,0 c 11.29824,0 19.78947,-6.66667 19.78947,-18.5965 0,-11.99999 -8.49123,-17.82456 -19.78947,-17.82456 l -21.12281,0 z M 339.47588,358 l 0,-15.36842 3.7193,0 c 5.19298,0 10.10526,1.75439 10.10526,7.7193 0,5.89473 -4.91228,7.64912 -10.10526,7.64912 l -3.7193,0 z"/>
		<path d="m 391.21381,366.77193 18.66667,0 0,23.22807 13.19298,0 0,-57.89474 -13.19298,0 0,23.08772 -18.66667,0 0,-23.08772 -13.19298,0 0,57.89474 13.19298,0 0,-23.22807 z"/>
		<path d="m 449.66776,332.10526 -13.19298,0 0,57.89474 13.19298,0 0,-57.89474 z"/>
		<path d="m 476.32346,332.10526 -13.19298,0 0,57.89474 33.12281,0 0,-11.57895 -19.92983,0 0,-46.31579 z"/>
		<path d="m 520.93421,332.10526 -13.19298,0 0,57.89474 33.1228,0 0,-11.57895 -19.92982,0 0,-46.31579 z"/>
		<path d="m 565.54496,332.10526 -13.19298,0 0,57.89474 13.19298,0 0,-57.89474 z"/>
		<path d="m 579.00768,332.10526 0,57.89474 13.19298,0 0,-21.47368 7.92982,0 c 11.29825,0 19.78948,-6.66667 19.78948,-18.5965 0,-11.99999 -8.49123,-17.82456 -19.78948,-17.82456 l -21.1228,0 z M 592.20066,358 l 0,-15.36842 3.7193,0 c 5.19298,0 10.10526,1.75439 10.10526,7.7193 0,5.89473 -4.91228,7.64912 -10.10526,7.64912 l -3.7193,0 z"/>
		<path d="m 650.70832,331.05263 c -9.33333,0 -18.87719,6.8772 -18.87719,17.68421 0,6.03509 4.07017,11.4386 11.01754,14.8772 6.87719,3.43859 13.05263,5.33333 13.05263,9.54385 0,5.40351 -5.47368,5.68422 -8.35088,5.68422 -6.45614,0 -14.17543,-6.52632 -14.17543,-6.52632 l -6.5965,11.08772 c 0,0 8.21053,7.64912 21.75439,7.64912 11.29825,0 21.82456,-4.8421 21.82456,-18.66666 0,-7.57895 -7.08772,-13.05264 -13.54386,-15.78948 -6.59649,-2.80702 -12.07017,-5.12281 -12.07017,-8.35088 0,-3.15789 2.38596,-5.19298 6.87719,-5.19298 5.96491,0 11.7193,4 11.7193,4 l 5.33333,-10.52631 c 0,0 -7.4386,-5.47369 -17.96491,-5.47369 z"/>
		<path d="m 703.11623,361.01754 c 0,16.91228 12.07018,30.03509 29.19298,30.03509 16.63158,0 29.12281,-13.12281 29.12281,-30.03509 0,-16.91228 -13.05263,-29.96491 -29.12281,-29.96491 -15.92982,0 -29.19298,13.05263 -29.19298,29.96491 z m 14.24562,0 c 0,-8.63157 4.77193,-17.26315 14.94736,-17.26315 10.24562,0 14.8772,8.63158 14.8772,17.26315 0,8.63158 -4.35088,17.26316 -14.8772,17.26316 -10.80701,0 -14.94736,-8.63158 -14.94736,-17.26316 z"/>
		<path d="m 772.25328,332.10526 0,57.89474 13.19298,0 0,-21.47368 7.92983,0 c 11.29824,0 19.78947,-6.66667 19.78947,-18.5965 0,-11.99999 -8.49123,-17.82456 -19.78947,-17.82456 l -21.12281,0 z M 785.44626,358 l 0,-15.36842 3.7193,0 c 5.19298,0 10.10527,1.75439 10.10527,7.7193 0,5.89473 -4.91229,7.64912 -10.10527,7.64912 l -3.7193,0 z"/>
		<path d="m 823.9912,332.10526 0,57.89474 13.19298,0 0,-21.47368 7.92982,0 c 11.29825,0 19.78948,-6.66667 19.78948,-18.5965 0,-11.99999 -8.49123,-17.82456 -19.78948,-17.82456 l -21.1228,0 z M 837.18418,358 l 0,-15.36842 3.7193,0 c 5.19298,0 10.10526,1.75439 10.10526,7.7193 0,5.89473 -4.91228,7.64912 -10.10526,7.64912 l -3.7193,0 z"/>
		<path d="m 908.85198,332.10526 -33.12281,0 0,57.89474 33.12281,0 0,-11.57895 -19.92982,0 0,-11.64912 19.08771,0 0,-11.57895 -19.08771,0 0,-11.50877 19.92982,0 0,-11.57895 z"/>
		<path d="m 934.62937,354.07018 0.14035,0 23.01754,35.92982 13.19299,0 0,-57.89474 -13.19299,0 0,35.92983 -0.14035,0 -23.01754,-35.92983 -13.19298,0 0,57.89474 13.19298,0 0,-35.92982 z"/>
		<path d="m 997.60636,366.77193 18.66664,0 0,23.22807 13.193,0 0,-57.89474 -13.193,0 0,23.08772 -18.66664,0 0,-23.08772 -13.19298,0 0,57.89474 13.19298,0 0,-23.22807 z"/>
		<path d="m 1075.9901,332.10526 -33.1228,0 0,57.89474 33.1228,0 0,-11.57895 -19.9298,0 0,-11.64912 19.0877,0 0,-11.57895 -19.0877,0 0,-11.50877 19.9298,0 0,-11.57895 z"/>
		<path d="m 1101.7676,332.10526 -13.193,0 0,57.89474 13.193,0 0,-57.89474 z"/>
		<path d="m 1163.0899,390 13.193,0 -5.193,-57.89474 -14.0351,0 -12.8421,33.40351 -12.8421,-33.40351 -14.0351,0 -5.1929,57.89474 13.1929,0 2.7369,-34.31579 0.3509,0 11.8596,33.96491 7.8597,0 11.8596,-33.96491 0.3509,0 2.7368,34.31579 z"/>
	</g>
</svg>

<?xml version="1.0" encoding="utf-8"?>
<svg xmlns="http://www.w3.org/2000/svg" xmlns:svg="http://www.w3.org/2000/svg" version="1.1" viewBox="0 0 1400 440">
	<title>The titlepage for the Standard Ebooks edition of The Great Impersonation, by E. Phillips Oppenheim</title>
	<g aria-label="THE GREAT">
		<path d="m 415.39766,68.245613 h 18.33918 V 130 h 17.59064 V 68.245613 h 18.33918 V 52.807016 h -54.269 z"/>
		<path d="m 498.5921,99.029239 h 24.88889 V 130 h 17.59064 V 52.807016 H 523.48099 V 83.590642 H 498.5921 V 52.807016 H 481.00146 V 130 h 17.59064 z"/>
		<path d="M 601.43714,52.807016 H 557.27339 V 130 h 44.16375 v -15.4386 h -26.5731 V 99.029239 h 25.45029 V 83.590642 H 574.86404 V 68.245613 h 26.5731 z"/>
		<path d="m 716.93568,86.771929 h -35.64913 v 13.567251 h 17.77778 c 0,9.45029 -8.32748,14.87719 -16.74854,14.87719 -10.8538,0 -19.64912,-10.66666 -19.64912,-23.766078 0,-13.380117 8.79532,-24.140352 19.64912,-24.140352 6.83041,0 12.72515,2.713451 17.21638,9.918129 L 711.04094,64.59649 c -6.73684,-8.140351 -16.18713,-13.192983 -29.75439,-13.192983 -21.7076,0 -37.61403,17.871346 -37.61403,40.046785 0,22.081868 16.8421,39.953218 37.61403,39.953218 15.1579,0 31.4386,-8.32749 35.64913,-27.88304 z"/>
		<path d="M 729.61987,52.807016 V 130 h 17.59065 V 99.497075 L 770.78946,130 h 22.36258 l -26.5731,-31.906433 c 9.45029,-2.994152 15.81286,-10.760234 15.81286,-22.362574 0,-15.157895 -10.8538,-22.923977 -25.16959,-22.923977 z m 17.59065,34.245615 V 66.842104 h 2.05848 c 6.64327,0 14.59649,0.467836 14.59649,10.105263 0,9.637428 -7.95322,10.105264 -14.59649,10.105264 z"/>
		<path d="M 845.85234,52.807016 H 801.6886 V 130 h 44.16374 v -15.4386 h -26.5731 V 99.029239 h 25.4503 V 83.590642 h -25.4503 V 68.245613 h 26.5731 z"/>
		<path d="m 900.71783,52.807016 h -16.2807 L 853.27924,130 h 18.90058 l 5.7076,-15.4386 h 29.38012 L 912.97514,130 h 18.90059 z m 0.56141,46.31579 h -17.40351 l 8.60818,-22.45614 h 0.18714 z"/>
		<path d="m 930.3611,68.245613 h 18.33918 V 130 h 17.59064 V 68.245613 H 984.6301 V 52.807016 h -54.269 z"/>
	</g>
	<g aria-label="IMPERSONATION">
		<path d="M 275.25876,152.80702 H 257.66812 V 230 h 17.59064 z"/>
		<path d="m 355.35526,230 h 17.59064 l -6.92398,-77.19298 h -18.71345 l -17.12281,44.53801 -17.1228,-44.53801 H 294.34941 L 287.42543,230 h 17.59064 l 3.64913,-45.75439 h 0.46783 l 15.81287,45.28655 h 10.47953 l 15.81287,-45.28655 h 0.46783 z"/>
		<path d="M 384.99268,152.80702 V 230 h 17.59065 v -28.63158 h 10.5731 c 15.06432,0 26.38596,-8.88889 26.38596,-24.79532 0,-16 -11.32164,-23.76608 -26.38596,-23.76608 z m 17.59065,34.52631 V 166.8421 h 4.95906 c 6.92398,0 13.47369,2.33919 13.47369,10.2924 0,7.85965 -6.54971,10.19883 -13.47369,10.19883 z"/>
		<path d="M 496.47368,152.80702 H 452.30994 V 230 h 44.16374 v -15.4386 h -26.5731 v -15.53216 h 25.45029 v -15.4386 h -25.45029 v -15.34503 h 26.5731 z"/>
		<path d="M 511.58626,152.80702 V 230 H 529.1769 V 199.49708 L 552.75585,230 h 22.36257 l -26.5731,-31.90643 c 9.4503,-2.99416 15.81287,-10.76024 15.81287,-22.36258 0,-15.15789 -10.8538,-22.92397 -25.16959,-22.92397 z m 17.59064,34.24561 V 166.8421 h 2.05848 c 6.64328,0 14.59649,0.46784 14.59649,10.10527 0,9.63742 -7.95321,10.10526 -14.59649,10.10526 z"/>
		<path d="m 612.09941,151.40351 c -12.44444,0 -25.16959,9.16959 -25.16959,23.57895 0,8.04678 5.4269,15.25146 14.69006,19.83625 9.16959,4.5848 17.40351,7.11111 17.40351,12.72515 0,7.20468 -7.29825,7.57895 -11.1345,7.57895 -8.60819,0 -18.90059,-8.70176 -18.90059,-8.70176 l -8.79532,14.78363 c 0,0 10.94737,10.19883 29.00585,10.19883 15.06433,0 29.09941,-6.45614 29.09941,-24.88889 0,-10.10526 -9.45029,-17.40351 -18.05848,-21.05263 -8.79532,-3.74269 -16.09356,-6.83041 -16.09356,-11.13451 0,-4.21052 3.18128,-6.92397 9.16959,-6.92397 7.95321,0 15.62573,5.33333 15.62573,5.33333 l 7.11111,-14.03509 c 0,0 -9.91813,-7.29824 -23.95322,-7.29824 z"/>
		<path d="m 648.05849,191.35672 c 0,22.54971 16.09357,40.04679 38.92398,40.04679 22.17544,0 38.83041,-17.49708 38.83041,-40.04679 0,-22.5497 -17.40351,-39.95321 -38.83041,-39.95321 -21.23977,0 -38.92398,17.40351 -38.92398,39.95321 z m 18.99415,0 c 0,-11.50877 6.36257,-23.01754 19.92983,-23.01754 13.66082,0 19.83625,11.50877 19.83625,23.01754 0,11.50878 -5.80117,23.01755 -19.83625,23.01755 -14.40936,0 -19.92983,-11.50877 -19.92983,-23.01755 z"/>
		<path d="m 756.1652,182.09357 h 0.18713 L 787.04239,230 h 17.59065 v -77.19298 h -17.59065 v 47.90643 h -0.18713 L 756.1652,152.80702 H 738.57455 V 230 h 17.59065 z"/>
		<path d="M 860.08191,152.80702 H 843.8012 L 812.64331,230 h 18.90058 l 5.70761,-15.4386 h 29.38011 L 872.33922,230 h 18.90058 z m 0.5614,46.31579 H 843.2398 l 8.60819,-22.45614 h 0.18713 z"/>
		<path d="m 889.72517,168.24561 h 18.33918 V 230 H 925.655 v -61.75439 h 18.33918 v -15.43859 h -54.26901 z"/>
		<path d="M 972.91959,152.80702 H 955.32895 V 230 h 17.59064 z"/>
		<path d="m 985.74123,191.35672 c 0,22.54971 16.09357,40.04679 38.92397,40.04679 22.1754,0 38.8304,-17.49708 38.8304,-40.04679 0,-22.5497 -17.4035,-39.95321 -38.8304,-39.95321 -21.2398,0 -38.92397,17.40351 -38.92397,39.95321 z m 18.99417,0 c 0,-11.50877 6.3626,-23.01754 19.9298,-23.01754 13.6608,0 19.8363,11.50877 19.8363,23.01754 0,11.50878 -5.8012,23.01755 -19.8363,23.01755 -14.4094,0 -19.9298,-11.50877 -19.9298,-23.01755 z"/>
		<path d="m 1093.8479,182.09357 h 0.1872 L 1124.7251,230 h 17.5907 v -77.19298 h -17.5907 v 47.90643 h -0.1871 l -30.6901,-47.90643 h -17.5906 V 230 h 17.5906 z"/>
	</g>
	<g aria-label="E. PHILLIPS OPPENHEIM">
		<path d="M 259.97588,332.10526 H 226.85307 V 390 h 33.12281 v -11.57895 h -19.92982 v -11.64912 h 19.08772 v -11.57895 h -19.08772 v -11.50877 h 19.92982 z"/>
		<path d="m 280.56031,374.98246 c -4.42105,0 -8,3.57894 -8,8.07017 0,4.42105 3.57895,8 8,8 4.49123,0 8.07018,-3.57895 8.07018,-8 0,-4.49123 -3.57895,-8.07017 -8.07018,-8.07017 z"/>
		<path d="M 326.2829,332.10526 V 390 h 13.19298 v -21.47368 h 7.92983 c 11.29824,0 19.78947,-6.66667 19.78947,-18.5965 0,-11.99999 -8.49123,-17.82456 -19.78947,-17.82456 z M 339.47588,358 v -15.36842 h 3.7193 c 5.19298,0 10.10526,1.75439 10.10526,7.7193 0,5.89473 -4.91228,7.64912 -10.10526,7.64912 z"/>
		<path d="m 391.21381,366.77193 h 18.66667 V 390 h 13.19298 v -57.89474 h -13.19298 v 23.08772 H 391.21381 V 332.10526 H 378.02083 V 390 h 13.19298 z"/>
		<path d="M 449.66776,332.10526 H 436.47478 V 390 h 13.19298 z"/>
		<path d="M 476.32346,332.10526 H 463.13048 V 390 h 33.12281 v -11.57895 h -19.92983 z"/>
		<path d="M 520.93421,332.10526 H 507.74123 V 390 h 33.1228 v -11.57895 h -19.92982 z"/>
		<path d="M 565.54496,332.10526 H 552.35198 V 390 h 13.19298 z"/>
		<path d="M 579.00768,332.10526 V 390 h 13.19298 v -21.47368 h 7.92982 c 11.29825,0 19.78948,-6.66667 19.78948,-18.5965 0,-11.99999 -8.49123,-17.82456 -19.78948,-17.82456 z M 592.20066,358 v -15.36842 h 3.7193 c 5.19298,0 10.10526,1.75439 10.10526,7.7193 0,5.89473 -4.91228,7.64912 -10.10526,7.64912 z"/>
		<path d="m 650.70832,331.05263 c -9.33333,0 -18.87719,6.8772 -18.87719,17.68421 0,6.03509 4.07017,11.4386 11.01754,14.8772 6.87719,3.43859 13.05263,5.33333 13.05263,9.54385 0,5.40351 -5.47368,5.68422 -8.35088,5.68422 -6.45614,0 -14.17543,-6.52632 -14.17543,-6.52632 l -6.5965,11.08772 c 0,0 8.21053,7.64912 21.75439,7.64912 11.29825,0 21.82456,-4.8421 21.82456,-18.66666 0,-7.57895 -7.08772,-13.05264 -13.54386,-15.78948 -6.59649,-2.80702 -12.07017,-5.12281 -12.07017,-8.35088 0,-3.15789 2.38596,-5.19298 6.87719,-5.19298 5.96491,0 11.7193,4 11.7193,4 l 5.33333,-10.52631 c 0,0 -7.4386,-5.47369 -17.96491,-5.47369 z"/>
		<path d="m 703.11623,361.01754 c 0,16.91228 12.07018,30.03509 29.19298,30.03509 16.63158,0 29.12281,-13.12281 29.12281,-30.03509 0,-16.91228 -13.05263,-29.96491 -29.12281,-29.96491 -15.92982,0 -29.19298,13.05263 -29.19298,29.96491 z m 14.24562,0 c 0,-8.63157 4.77193,-17.26315 14.94736,-17.26315 10.24562,0 14.8772,8.63158 14.8772,17.26315 0,8.63158 -4.35088,17.26316 -14.8772,17.26316 -10.80701,0 -14.94736,-8.63158 -14.94736,-17.26316 z"/>
		<path d="M 772.25328,332.10526 V 390 h 13.19298 v -21.47368 h 7.92983 c 11.29824,0 19.78947,-6.66667 19.78947,-18.5965 0,-11.99999 -8.49123,-17.82456 -19.78947,-17.82456 z M 785.44626,358 v -15.36842 h 3.7193 c 5.19298,0 10.10527,1.75439 10.10527,7.7193 0,5.89473 -4.91229,7.64912 -10.10527,7.64912 z"/>
		<path d="M 823.9912,332.10526 V 390 h 13.19298 v -21.47368 h 7.92982 c 11.29825,0 19.78948,-6.66667 19.78948,-18.5965 0,-11.99999 -8.49123,-17.82456 -19.78948,-17.82456 z M 837.18418,358 v -15.36842 h 3.7193 c 5.19298,0 10.10526,1.75439 10.10526,7.7193 0,5.89473 -4.91228,7.64912 -10.10526,7.64912 z"/>
		<path d="M 908.85198,332.10526 H 875.72917 V 390 h 33.12281 v -11.57895 h -19.92982 v -11.64912 h 19.08771 v -11.57895 h -19.08771 v -11.50877 h 19.92982 z"/>
		<path d="m 934.62937,354.07018 h 0.14035 L 957.78726,390 h 13.19299 v -57.89474 h -13.19299 v 35.92983 h -0.14035 L 934.62937,332.10526 H 921.43639 V 390 h 13.19298 z"/>
		<path d="M 997.60636,366.77193 H 1016.273 V 390 h 13.193 v -57.89474 h -13.193 v 23.08772 H 997.60636 V 332.10526 H 984.41338 V 390 h 13.19298 z"/>
		<path d="m 1075.9901,332.10526 h -33.1228 V 390 h 33.1228 v -11.57895 h -19.9298 v -11.64912 h 19.0877 v -11.57895 h -19.0877 v -11.50877 h 19.9298 z"/>
		<path d="m 1101.7676,332.10526 h -13.193 V 390 h 13.193 z"/>
		<path d="m 1163.0899,390 h 13.193 l -5.193,-57.89474 h -14.0351 l -12.8421,33.40351 -12.8421,-33.40351 h -14.0351 L 1112.1426,390 h 13.1929 l 2.7369,-34.31579 h 0.3509 l 11.8596,33.96491 h 7.8597 l 11.8596,-33.96491 h 0.3509 z"/>
	</g>
</svg>
